X: 728
T: Ailbe Grace's
R: polka
M: 2/4
K: Adorian
EA AB|c2 BA|BG GB|dB AG|
EA AB|cd/c/ BA|Bd ed|BA AG:|
ce G/c/e/G/|ce e>d|Bd G/B/d/G/|Bd dG|
ce G/c/e/G/|ce e>d|cA BG|A2 Ag:|

